material/.icons/material/folder-lock-open.svg

<svg xmlns="http://www.w3.org/2000/svg" viewBox="0 0 24 24"><path d="M20 6a2 2 0 012 2v10a2 2 0 01-2 2H4a2 2 0 01-2-2V6c0-1.11.89-2 2-2h6l2 2h8m-1 11v-4h-5v-2a1 1 0 011-1 1 1 0 011 1h2a3 3 0 00-3-3 3 3 0 00-3 3v2h-1v4h8z"/></svg>

<?xml version="1.0" encoding="UTF-8"?><!DOCTYPE svg PUBLIC "-//W3C//DTD SVG 1.1//EN" "http://www.w3.org/Graphics/SVG/1.1/DTD/svg11.dtd"><svg xmlns="http://www.w3.org/2000/svg" xmlns:xlink="http://www.w3.org/1999/xlink" version="1.1" id="mdi-folder-lock-open" width="24" height="24" viewBox="0 0 24 24"><path d="M20,6A2,2 0 0,1 22,8V18A2,2 0 0,1 20,20H4C2.89,20 2,19.1 2,18V6C2,4.89 2.89,4 4,4H10L12,6H20M19,17V13H18L16,13H14V11A1,1 0 0,1 15,10A1,1 0 0,1 16,11H18A3,3 0 0,0 15,8A3,3 0 0,0 12,11V13H11V17H19Z" /></svg>
